.local/share/icons/Gruvbox-Plus-Dark/panel/16/messenger-indicator.svg

<svg xmlns="http://www.w3.org/2000/svg" width="16" height="16" version="1.1">
 <defs>
  <style id="current-color-scheme" type="text/css">
   .ColorScheme-Text { color:#ebdbb2; } .ColorScheme-Highlight { color:#458588; }
  </style>
 </defs>
 <path style="fill:currentColor" class="ColorScheme-Text" d="M 8,1 C 4.1340068,1 1,3.9101491 1,7.5 c 7.77e-4,2.125957 1.1211239,4.117198 3,5.332031 L 4,16 5.7617188,13.652344 C 6.4824815,13.880507 7.2385083,13.997936 8,14 11.865993,14 15,11.089851 15,7.5 15,3.9101491 11.865993,1 8,1 Z M 7,4 9,7 13,5 8,11 7,7.5 3,9 Z"/>
</svg>

<svg width="16" height="16" version="1.1" xmlns="http://www.w3.org/2000/svg">
  <defs>
    <style id="current-color-scheme" type="text/css">.ColorScheme-Text { color:#ebdbb2; } .ColorScheme-Highlight { color:#458588; } .ColorScheme-NeutralText { color:#fe8019; } .ColorScheme-PositiveText { color:#689d6a; } .ColorScheme-NegativeText { color:#fb4934; }</style>
  </defs>
  <path class="ColorScheme-Text" d="m8 1c-3.866 0-7 2.91-7 6.5 7.77e-4 2.126 1.121 4.117 3 5.332v3.168l1.762-2.348c0.7208 0.2282 1.477 0.3456 2.238 0.3477 3.866 0 7-2.91 7-6.5 0-3.59-3.134-6.5-7-6.5zm-1 3 2 3 4-2-5 6-1-3.5-4 1.5z" fill="currentColor"/>
</svg>
